images/linkedin.svg

<?xml version="1.0" encoding="UTF-8" standalone="no"?>
<svg width="200px" height="200px" viewBox="0 0 200 200" version="1.1" xmlns="http://www.w3.org/2000/svg" xmlns:xlink="http://www.w3.org/1999/xlink">
    <!-- Generator: Sketch 41 (35326) - http://www.bohemiancoding.com/sketch -->
    <title>linkedin</title>
    <desc>Created with Sketch.</desc>
    <defs></defs>
    <g id="Page-1" stroke="none" stroke-width="1" fill="none" fill-rule="evenodd">
        <g id="linkedin">
            <g id="Capa_1" transform="translate(0.000000, 0.000000)">
                <g id="Group">
                    <path d="M99.7856028,0 C44.6456084,0 0,44.6279474 0,99.7461295 C0,154.864312 44.6456084,199.492259 99.7856028,199.492259 C154.925597,199.492259 199.571206,154.864312 199.571206,99.7461295 C199.571206,44.6279474 154.925597,0 99.7856028,0 L99.7856028,0 Z M73.4607022,148.819092 L49.625995,148.819092 L49.625995,77.1654549 L73.4607022,77.1654549 L73.4607022,148.819092 L73.4607022,148.819092 Z M61.5433486,67.3864226 L61.5433486,67.3864226 C53.3612849,67.3864226 48.2030274,61.8746044 48.2030274,54.9403815 C48.2030274,47.828358 53.5391559,42.4943404 61.7212196,42.4943404 C69.9032832,42.4943404 74.8836698,47.828358 75.0615408,54.9403815 C75.0615408,61.8746044 69.7254123,67.3864226 61.5433486,67.3864226 L61.5433486,67.3864226 Z M159.372371,148.819092 L135.537664,148.819092 L135.537664,110.591965 C135.537664,100.990734 132.158116,94.4121119 123.442439,94.4121119 C116.861214,94.4121119 112.948053,98.8571266 111.169344,103.124341 C110.635731,104.724546 110.45786,106.680352 110.45786,108.99176 L110.45786,148.996892 L86.6231525,148.996892 C86.6231525,148.996892 86.9788944,84.0996778 86.6231525,77.3432555 L110.45786,77.3432555 L110.45786,87.477889 C113.659537,82.6772731 119.351407,75.5652496 131.980245,75.5652496 C147.632888,75.5652496 159.372371,85.8776837 159.372371,107.924957 L159.372371,148.819092 L159.372371,148.819092 Z" id="Shape" fill="#D7B740"></path>
                    <path d="M110.503316,87.3000884 L110.503316,87.5233269 L110.279989,87.5233269 C110.279989,87.5233269 110.503316,87.5233269 110.503316,87.3000884 L110.503316,87.3000884 Z" id="Shape" fill="#007AB9"></path>
                </g>
            </g>
        </g>
    </g>
</svg>

<svg width="200" height="200" viewBox="0 0 200 200" xmlns="http://www.w3.org/2000/svg"><title>linkedin</title><g fill="none" fill-rule="evenodd"><path d="M99.786 0C44.646 0 0 44.628 0 99.746c0 55.118 44.646 99.746 99.786 99.746s99.785-44.628 99.785-99.746C199.571 44.628 154.926 0 99.786 0zM73.46 148.82H49.626V77.164h23.835v71.654zM61.543 67.385c-8.182 0-13.34-5.511-13.34-12.446 0-7.112 5.336-12.446 13.518-12.446s13.163 5.334 13.34 12.446c0 6.935-5.336 12.446-13.518 12.446zm97.83 81.433h-23.835v-38.227c0-9.601-3.38-16.18-12.096-16.18-6.58 0-10.494 4.445-12.273 8.712-.533 1.6-.711 3.556-.711 5.868v40.005H86.623s.356-64.897 0-71.654h23.835v10.135c3.202-4.8 8.893-11.913 21.522-11.913 15.653 0 27.392 10.313 27.392 32.36v40.894z" fill="#D7B740"/><path d="M110.503 87.3v.223h-.223s.223 0 .223-.223z" fill="#007AB9"/></g></svg>
